assets/antools.svg

<svg width="139" height="38" viewBox="0 0 139 38" fill="none" xmlns="http://www.w3.org/2000/svg">
<path d="M0 8C0 3.58172 3.58172 0 8 0H30C34.4183 0 38 3.58172 38 8V30C38 34.4183 34.4183 38 30 38H8C3.58172 38 0 34.4183 0 30V8Z" fill="#FF6E30"/>
<path fill-rule="evenodd" clip-rule="evenodd" d="M19.9645 12.4359C19.632 12.4359 19.3089 12.4769 19 12.5541C19.1988 10.7606 19.9148 9.12396 20.9963 7.7949C25.2971 8.30462 28.6332 11.9645 28.6332 16.4029V22.7294C28.4605 22.7391 28.2864 22.744 28.1112 22.744C24.6706 22.744 21.6709 20.8483 20.1028 18.0423H23.9315V16.4029C23.9315 14.212 22.1554 12.4359 19.9645 12.4359Z" fill="white"/>
<path fill-rule="evenodd" clip-rule="evenodd" d="M9.25642 16.9507C9.25642 11.625 13.5738 7.30765 18.8995 7.30765C21.5623 7.30765 23.9731 8.38698 25.7182 10.132C24.1095 8.52339 21.9351 7.48047 19.5191 7.32727C17.894 9.12579 16.9044 11.5095 16.9044 14.1243C16.9044 14.3194 16.9099 14.5132 16.9208 14.7055C16.299 15.2539 15.9068 16.0565 15.9068 16.9507V17.6157H21.8922L17.5214 17.6158C18.9445 21.4968 22.672 24.2662 27.0462 24.2662C27.5546 24.2662 28.0542 24.2288 28.5425 24.1566V28.2564H21.8922V24.2661H15.9068V28.2564H9.25642V16.9507Z" fill="white"/>
<path d="M50.726 20.862C50.726 19.63 50.968 18.5373 51.452 17.584C51.9507 16.6307 52.618 15.8973 53.454 15.384C54.3047 14.8707 55.2507 14.614 56.292 14.614C57.2013 14.614 57.9933 14.7973 58.668 15.164C59.3573 15.5307 59.9073 15.9927 60.318 16.55V14.812H63.42V27H60.318V25.218C59.922 25.79 59.372 26.2667 58.668 26.648C57.9787 27.0147 57.1793 27.198 56.27 27.198C55.2433 27.198 54.3047 26.934 53.454 26.406C52.618 25.878 51.9507 25.1373 51.452 24.184C50.968 23.216 50.726 22.1087 50.726 20.862ZM60.318 20.906C60.318 20.158 60.1713 19.52 59.878 18.992C59.5847 18.4493 59.1887 18.0387 58.69 17.76C58.1913 17.4667 57.656 17.32 57.084 17.32C56.512 17.32 55.984 17.4593 55.5 17.738C55.016 18.0167 54.62 18.4273 54.312 18.97C54.0187 19.498 53.872 20.1287 53.872 20.862C53.872 21.5953 54.0187 22.2407 54.312 22.798C54.62 23.3407 55.016 23.7587 55.5 24.052C55.9987 24.3453 56.5267 24.492 57.084 24.492C57.656 24.492 58.1913 24.3527 58.69 24.074C59.1887 23.7807 59.5847 23.37 59.878 22.842C60.1713 22.2993 60.318 21.654 60.318 20.906Z" fill="white" fill-opacity="0.9"/>
<path d="M73.1822 14.636C74.6342 14.636 75.8075 15.098 76.7022 16.022C77.5968 16.9313 78.0442 18.2073 78.0442 19.85V27H74.9642V20.268C74.9642 19.3 74.7222 18.5593 74.2382 18.046C73.7542 17.518 73.0942 17.254 72.2582 17.254C71.4075 17.254 70.7328 17.518 70.2342 18.046C69.7502 18.5593 69.5082 19.3 69.5082 20.268V27H66.4282V14.812H69.5082V16.33C69.9188 15.802 70.4395 15.3913 71.0702 15.098C71.7155 14.79 72.4195 14.636 73.1822 14.636Z" fill="white" fill-opacity="0.9"/>
<path d="M84.5591 17.342V23.238C84.5591 23.6487 84.6544 23.9493 84.8451 24.14C85.0504 24.316 85.3877 24.404 85.8571 24.404H87.2871V27H85.3511C82.7551 27 81.4571 25.7387 81.4571 23.216V17.342H80.0051V14.812H81.4571V11.798H84.5591V14.812H87.2871V17.342H84.5591Z" fill="white" fill-opacity="0.9"/>
<path d="M94.9144 27.198C93.741 27.198 92.685 26.9413 91.7464 26.428C90.8077 25.9 90.067 25.1593 89.5244 24.206C88.9964 23.2527 88.7324 22.1527 88.7324 20.906C88.7324 19.6593 89.0037 18.5593 89.5464 17.606C90.1037 16.6527 90.859 15.9193 91.8124 15.406C92.7657 14.878 93.829 14.614 95.0024 14.614C96.1757 14.614 97.239 14.878 98.1924 15.406C99.1457 15.9193 99.8937 16.6527 100.436 17.606C100.994 18.5593 101.272 19.6593 101.272 20.906C101.272 22.1527 100.986 23.2527 100.414 24.206C99.857 25.1593 99.0944 25.9 98.1264 26.428C97.173 26.9413 96.1024 27.198 94.9144 27.198ZM94.9144 24.514C95.4717 24.514 95.9924 24.382 96.4764 24.118C96.975 23.8393 97.371 23.4287 97.6644 22.886C97.9577 22.3433 98.1044 21.6833 98.1044 20.906C98.1044 19.7473 97.7964 18.86 97.1804 18.244C96.579 17.6133 95.8384 17.298 94.9584 17.298C94.0784 17.298 93.3377 17.6133 92.7364 18.244C92.1497 18.86 91.8564 19.7473 91.8564 20.906C91.8564 22.0647 92.1424 22.9593 92.7144 23.59C93.301 24.206 94.0344 24.514 94.9144 24.514Z" fill="white" fill-opacity="0.9"/>
<path d="M108.944 27.198C107.77 27.198 106.714 26.9413 105.776 26.428C104.837 25.9 104.096 25.1593 103.554 24.206C103.026 23.2527 102.762 22.1527 102.762 20.906C102.762 19.6593 103.033 18.5593 103.576 17.606C104.133 16.6527 104.888 15.9193 105.842 15.406C106.795 14.878 107.858 14.614 109.032 14.614C110.205 14.614 111.268 14.878 112.222 15.406C113.175 15.9193 113.923 16.6527 114.466 17.606C115.023 18.5593 115.302 19.6593 115.302 20.906C115.302 22.1527 115.016 23.2527 114.444 24.206C113.886 25.1593 113.124 25.9 112.156 26.428C111.202 26.9413 110.132 27.198 108.944 27.198ZM108.944 24.514C109.501 24.514 110.022 24.382 110.506 24.118C111.004 23.8393 111.4 23.4287 111.694 22.886C111.987 22.3433 112.134 21.6833 112.134 20.906C112.134 19.7473 111.826 18.86 111.21 18.244C110.608 17.6133 109.868 17.298 108.988 17.298C108.108 17.298 107.367 17.6133 106.766 18.244C106.179 18.86 105.886 19.7473 105.886 20.906C105.886 22.0647 106.172 22.9593 106.744 23.59C107.33 24.206 108.064 24.514 108.944 24.514Z" fill="white" fill-opacity="0.9"/>
<path d="M120.641 10.72V27H117.561V10.72H120.641Z" fill="white" fill-opacity="0.9"/>
<path d="M128.348 27.198C127.351 27.198 126.456 27.022 125.664 26.67C124.872 26.3033 124.241 25.812 123.772 25.196C123.317 24.58 123.068 23.898 123.024 23.15H126.126C126.185 23.6193 126.412 24.008 126.808 24.316C127.219 24.624 127.725 24.778 128.326 24.778C128.913 24.778 129.367 24.6607 129.69 24.426C130.027 24.1913 130.196 23.8907 130.196 23.524C130.196 23.128 129.991 22.8347 129.58 22.644C129.184 22.4387 128.546 22.2187 127.666 21.984C126.757 21.764 126.009 21.5367 125.422 21.302C124.85 21.0673 124.351 20.708 123.926 20.224C123.515 19.74 123.31 19.0873 123.31 18.266C123.31 17.5913 123.501 16.9753 123.882 16.418C124.278 15.8607 124.835 15.4207 125.554 15.098C126.287 14.7753 127.145 14.614 128.128 14.614C129.58 14.614 130.739 14.9807 131.604 15.714C132.469 16.4327 132.946 17.408 133.034 18.64H130.086C130.042 18.156 129.837 17.7747 129.47 17.496C129.118 17.2027 128.641 17.056 128.04 17.056C127.483 17.056 127.05 17.1587 126.742 17.364C126.449 17.5693 126.302 17.8553 126.302 18.222C126.302 18.6327 126.507 18.948 126.918 19.168C127.329 19.3733 127.967 19.586 128.832 19.806C129.712 20.026 130.438 20.2533 131.01 20.488C131.582 20.7227 132.073 21.0893 132.484 21.588C132.909 22.072 133.129 22.7173 133.144 23.524C133.144 24.228 132.946 24.8587 132.55 25.416C132.169 25.9733 131.611 26.4133 130.878 26.736C130.159 27.044 129.316 27.198 128.348 27.198Z" fill="white" fill-opacity="0.9"/>
<path d="M137.036 27.154C136.479 27.154 136.017 26.9853 135.65 26.648C135.298 26.296 135.122 25.8633 135.122 25.35C135.122 24.8367 135.298 24.4113 135.65 24.074C136.017 23.722 136.479 23.546 137.036 23.546C137.579 23.546 138.026 23.722 138.378 24.074C138.73 24.4113 138.906 24.8367 138.906 25.35C138.906 25.8633 138.73 26.296 138.378 26.648C138.026 26.9853 137.579 27.154 137.036 27.154Z" fill="white" fill-opacity="0.9"/>
</svg>

<svg width="139" height="38" fill="none" xmlns="http://www.w3.org/2000/svg"><path d="M0 8a8 8 0 0 1 8-8h22a8 8 0 0 1 8 8v22a8 8 0 0 1-8 8H8a8 8 0 0 1-8-8V8Z" fill="#FF6E30"/><path fill-rule="evenodd" clip-rule="evenodd" d="M19.965 12.436c-.333 0-.656.04-.965.118a9.12 9.12 0 0 1 1.996-4.76 8.67 8.67 0 0 1 7.637 8.609v6.326a9.165 9.165 0 0 1-8.53-4.687h3.828v-1.64a3.967 3.967 0 0 0-3.966-3.966Z" fill="#fff"/><path fill-rule="evenodd" clip-rule="evenodd" d="M9.256 16.95A9.643 9.643 0 0 1 19.52 7.328a10.105 10.105 0 0 0-2.598 7.379 2.985 2.985 0 0 0-1.014 2.245v.665h5.985-4.37c1.423 3.88 5.15 6.65 9.524 6.65.509 0 1.008-.037 1.497-.11v4.1h-6.65v-3.99h-5.986v3.99h-6.65V16.951Z" fill="#fff"/><path d="M50.726 20.862c0-1.232.242-2.325.726-3.278.499-.953 1.166-1.687 2.002-2.2.85-.513 1.797-.77 2.838-.77.91 0 1.701.183 2.376.55.69.367 1.24.829 1.65 1.386v-1.738h3.102V27h-3.102v-1.782c-.396.572-.946 1.049-1.65 1.43-.69.367-1.489.55-2.398.55a5.235 5.235 0 0 1-2.816-.792c-.836-.528-1.503-1.269-2.002-2.222-.484-.968-.726-2.075-.726-3.322Zm9.592.044c0-.748-.147-1.386-.44-1.914a3.01 3.01 0 0 0-1.188-1.232 3.115 3.115 0 0 0-1.606-.44c-.572 0-1.1.14-1.584.418-.484.279-.88.69-1.188 1.232-.293.528-.44 1.159-.44 1.892 0 .733.147 1.379.44 1.936.308.543.704.96 1.188 1.254a3.08 3.08 0 0 0 1.584.44 3.24 3.24 0 0 0 1.606-.418 3.2 3.2 0 0 0 1.188-1.232c.293-.543.44-1.188.44-1.936Zm12.864-6.27c1.452 0 2.626.462 3.52 1.386.895.91 1.342 2.185 1.342 3.828V27h-3.08v-6.732c0-.968-.242-1.709-.726-2.222-.484-.528-1.144-.792-1.98-.792-.85 0-1.525.264-2.024.792-.484.513-.726 1.254-.726 2.222V27h-3.08V14.812h3.08v1.518c.41-.528.931-.939 1.562-1.232a4.84 4.84 0 0 1 2.112-.462Zm11.378 2.706v5.896c0 .41.094.711.285.902.205.176.543.264 1.012.264h1.43V27h-1.936c-2.596 0-3.894-1.261-3.894-3.784v-5.874h-1.452v-2.53h1.452v-3.014h3.102v3.014h2.728v2.53H84.56Zm10.354 9.856c-1.173 0-2.229-.257-3.168-.77a5.776 5.776 0 0 1-2.222-2.222c-.528-.953-.792-2.053-.792-3.3 0-1.247.272-2.347.814-3.3a5.73 5.73 0 0 1 2.266-2.2c.954-.528 2.017-.792 3.19-.792 1.174 0 2.237.264 3.19.792a5.58 5.58 0 0 1 2.244 2.2c.558.953.836 2.053.836 3.3 0 1.247-.286 2.347-.858 3.3a5.843 5.843 0 0 1-2.288 2.222c-.953.513-2.024.77-3.212.77Zm0-2.684a3.21 3.21 0 0 0 1.562-.396c.499-.279.895-.69 1.188-1.232.294-.543.44-1.203.44-1.98 0-1.159-.308-2.046-.924-2.662-.601-.63-1.342-.946-2.222-.946-.88 0-1.62.315-2.222.946-.586.616-.88 1.503-.88 2.662s.286 2.053.858 2.684c.587.616 1.32.924 2.2.924Zm14.03 2.684c-1.174 0-2.23-.257-3.168-.77a5.77 5.77 0 0 1-2.222-2.222c-.528-.953-.792-2.053-.792-3.3 0-1.247.271-2.347.814-3.3a5.725 5.725 0 0 1 2.266-2.2c.953-.528 2.016-.792 3.19-.792 1.173 0 2.236.264 3.19.792a5.588 5.588 0 0 1 2.244 2.2c.557.953.836 2.053.836 3.3 0 1.247-.286 2.347-.858 3.3a5.85 5.85 0 0 1-2.288 2.222c-.954.513-2.024.77-3.212.77Zm0-2.684c.557 0 1.078-.132 1.562-.396.498-.279.894-.69 1.188-1.232.293-.543.44-1.203.44-1.98 0-1.159-.308-2.046-.924-2.662-.602-.63-1.342-.946-2.222-.946-.88 0-1.621.315-2.222.946-.587.616-.88 1.503-.88 2.662s.286 2.053.858 2.684c.586.616 1.32.924 2.2.924Zm11.697-13.794V27h-3.08V10.72h3.08Zm7.707 16.478c-.997 0-1.892-.176-2.684-.528-.792-.367-1.423-.858-1.892-1.474a3.748 3.748 0 0 1-.748-2.046h3.102c.059.47.286.858.682 1.166.411.308.917.462 1.518.462.587 0 1.041-.117 1.364-.352.337-.235.506-.535.506-.902 0-.396-.205-.69-.616-.88-.396-.205-1.034-.425-1.914-.66-.909-.22-1.657-.447-2.244-.682a3.986 3.986 0 0 1-1.496-1.078c-.411-.484-.616-1.137-.616-1.958 0-.675.191-1.29.572-1.848.396-.557.953-.997 1.672-1.32.733-.323 1.591-.484 2.574-.484 1.452 0 2.611.367 3.476 1.1.865.719 1.342 1.694 1.43 2.926h-2.948c-.044-.484-.249-.865-.616-1.144-.352-.293-.829-.44-1.43-.44-.557 0-.99.103-1.298.308a.99.99 0 0 0-.44.858c0 .41.205.726.616.946.411.205 1.049.418 1.914.638.88.22 1.606.447 2.178.682a3.72 3.72 0 0 1 1.474 1.1c.425.484.645 1.13.66 1.936 0 .704-.198 1.335-.594 1.892-.381.557-.939.997-1.672 1.32-.719.308-1.562.462-2.53.462Zm8.688-.044c-.557 0-1.019-.169-1.386-.506a1.764 1.764 0 0 1-.528-1.298c0-.513.176-.939.528-1.276.367-.352.829-.528 1.386-.528.543 0 .99.176 1.342.528.352.337.528.763.528 1.276s-.176.946-.528 1.298c-.352.337-.799.506-1.342.506Z" fill="#fff" fill-opacity=".9"/></svg>
